!!!!SEGMENT:Mutsunohana.krn
!!!OTL: むつの花
!!!OPR:Eiga Banso Kyokusyu,jidai-geki,kouhen
!!!YOY:1928
!!!ONB:Shizukanarukeshiki
**kern
*clefG2
*k[]
*C:
*M2/4
=1
8eeL
8eeJ
8ddL
8ddJ
=2
8eeL
16eeL
16eeJJ
8bL
8aJ
=3
8bL
8aJ
8fL
8aJ
=4
8bL
8e
8e
8cJ
=5
4B
8aL
8aJ
=6
8bL
(8a
8b)
8aJ
=7
8BL
8bJ
8BL
8bJ
=8
8BL
8bJ
4r
=9
4b
8aL
8aJ
=10
8bL
(8aJ
8bL)
8aJ
=11
8bL
8ccJ
8eeL
8ccJ
=12
8ccL
8bJ
4r
=13
8aL
8aJ
8r
16bLL
16aJJ
=14
4f#X
4r
=15
8eL
8eJ
8r
16f#XLL
16eJJ
=16
4c
4r
=17
4e
8cL
8cJ
=18
8eL
8g
8f#X
8eJ
=19
4c
8eL
8cJ
=20
4B
8aL
8bJ
=21
8.BL
16fJk
4f
=22
4f
4r
=23
8ffL
8ee
8dd
8eeJ
=24
4ff
8aL
8BJ
=25
4b
4b
=26
4b
4r
==
*-
!!!ENC: Yukiko Yoden
!!!END: 2023/06/11
